X:2
T:Burning the Piper's Hut
C:Traditional
M:4/4
L:1/8
N:I learned this tune from some of the Hensey House Band
N:Members of the Los Angeles Catholic Worker community.
N:It's dates from the Highland Clearings of Scotland.
N:Transcribed by R. S. Doiel, Summer 1998
O:Scotland
Q:1/4=60
K:G
|: "A" ABcd e4 | "C" edeg e2 dc | "G" B2 G2 d2 G2 |  "D" Bcde d2 cB |
"A" ABcd e4 | "C" edeg e2 dc | "G" B2 G2 e2 dc | "D" B2 A2 A4 :|
|: "Em" e2 A2 g2 A2 | "C" e2 A2 g2 dc | "G" B2 G2 d2 G2 | "D" Bcde "A" d2 cB |
"Em" e2 A2 g2 A2 | "C" e2 A2 g2 dc | "G" B2 G2 e2 dc | "D" B2 "A" A2 A4 :|


